X:1
T:Old Nick's Lumber Room
T:the Pawnbroker's Warehouse
S:Edinburgh Public Library "Musical Scraps" v2 p116
Z:Jack Campin 1998
N:press cutting in 19th century style
N:anybody know where it comes from
M:6/8
L:1/8
K:A
A3 (cAc)|eae  cAc|E3 (GEG)|B^dB GEG|A3   cAc|eae cAc|faf ^dBd|e3- [e3E3] :|
E3  GEG |B^dB GEG|A3  cAc |eae  cAc|faf ^dBd|eae cAc|B^dB GEG|A3  [A3A,3]:|
